X:85
T:Paddy on the Turntable 
M:C|
L:1/8
C: Paul Gitlitz 1984
R:Single Reel
B:Giblitz Fancy, 141 Brand New Old Time Fiddle Tunes Vol. 2
N:The place he most often hung out, before his untimely demise.
H:
K:Am
"Am"EA~A2"F"Fc~c2|"Am"EA~A2"C"cdeg|"Am"EA~A2"C"Gc~c2|"Dm"fddf "Am"eAA2:|! 
|:"Am"~a2ga eaga|~a2ga "Em"eg"G"dg|"Am"ea~a2"G"baga|gddg "Am"eAA2:|]
